X:1
T:Title
%%score 1 2
L:1/8
Q:1/4=93
M:3/4
K:Bb
V:1 treble nm="Grand Piano, Soprano"
V:2 bass nm="Choir Pad, College Park, 86.88.86"
V:1
 [DF][DF] [Fd] [Ec]3 | [EF][EF] [Ec] [DB]3- | [DB] [FB]2 [Fc]3 | [Fd][Ge] [EG] [EG]2 [DF] | %4
w: By~M.~A.~Rublee,~1879 * * *||||
 [FA][FA] [FB] [Fc]3 | [FB][FB]- [FB]/[FA]/ [FA]3 | [DB][DB] [Ec] [Fd]3 | %7
w: |||
 [Ec][Ec]- [Ec]/[DB]/ [DB]3- | [DB] F2 [EG]- [EG]/[EG]/[EG] | [EA][DB] [Fc] [Fd]3- | %10
w: |||
 [Fd] [_Ad]2 [Ge]- [Ge]/[EG]/[EG]- | [EG] [EA]2 [DB]3- | [DB]4 z2 |] %13
w: |||
V:2
 [B,,B,][B,,B,] [B,,B,] [F,A,]3 | [F,A,][F,A,] [F,A,] [B,,B,]3- | [B,,B,] [D,B,]2 [F,A,]3 | %3
 B,[E,B,] [E,B,] [B,,B,]3 | [F,E][F,E] [F,D] [F,E]3 | [F,D][F,D]- [F,D]/[F,C]/ [F,C]3 | %6
 B,B, B, B,3 | [F,A,][F,A,]- [F,A,]/[B,,B,]/ [B,,B,]3- | %8
 [B,,B,] [D,B,]2 [E,B,]- [E,B,]/[E,B,]/[E,B,] | [C,C][D,B,] [C,A,] [B,,B,]3- | %10
 [B,,B,] [B,,B,]2 [E,B,]- [E,B,]/[E,B,]/[E,B,]- | [E,B,] F,2 [B,,F,]3- | [B,,F,]4 z2 |] %13

